X: 29838
T: O'Dea's
R: jig
M: 6/8
K: Gmajor
|:~G3 GBd|BGD ~E3|DGB d2d|edB def|
~g3 ged|edg edB|~e3 edB|1 gdB ABA:|2 gdB ABd||
~e3 edB|ded d2 e|dBG GBd|edB AFD|GBd ~g3|edg edB|~e3 edB|gdB ABd|
~c3 cBA|cde d2 e|dBG GBd|edB AFD|GBd ~g3|edg edB|~e3 edB|gdB ABA||

